X:1
T:Millard, 76.76.88.77
T:Millard, 76.76.88.77
T:Andreas Peter Berggreen (1801-1880)
T:Public Domain Courtesy of the Cyber Hymnal™
C:Andreas Peter Berggreen (1801-1880)
Z:Public Domain
Z:Courtesy of the Cyber Hymnal™
%%score ( 1 2 ) ( 3 4 )
L:1/8
Q:1/4=112
M:4/4
K:G
V:1 treble 
V:2 treble 
V:3 bass 
V:4 bass 
V:1
 [DB]2 [DG]2 [CG]2 [CF]2 | [B,G]2 [CE]2 [B,D]4 | (EF) [DG]2 c2 [GB]2 | (A2 G2) [FA]4 | %4
 [DB]2 [DG]2 [CG]2 [CF]2 | [B,G]2 [CE]2 [B,D]4 | (EF) [DG]2 c2 [GB]2 | ([EA]2 [DF]2) [DG]4 | %8
 [FA]2 [GB]2 (dc) [GB]2 | [FA]2 [GB]2 (dc) [GB]2 | [Gc]2 [GB]2 [FA]2 [^GB]2 | %11
 [Ac]2 [EA]2 [DG]2 [DF]2 | [B,G]2 [DF]2 (EF) [B,G]2 | [EG]2 [EA]2 [^DB]4 | %14
 [B,G]2 [DF]2 (EF) [B,G]2 | [GB]2 [FA]2 G4 |] %16
V:2
 x8 | x8 | C2 x (E F) x3 | E4 x4 | x8 | x8 | C2 x (E F) x3 | x8 | x4 A2 x2 | x4 A2 x2 | x8 | x8 | %12
 x4 C2 x2 | x8 | x4 C2 x2 | x4 G4 |] %16
V:3
 G,2 [B,,G,]2 [D,A,]2 [D,A,]2 | [E,G,]2 [C,G,]2 [G,,G,]4 | (G,A,) [B,,B,]2 [A,,C]2 [B,,D]2 | %3
 ([C,C]2 [^C,A,]2) [D,A,]4 | G,2 [B,,G,]2 [D,A,]2 [D,A,]2 | [E,G,]2 [C,G,]2 [G,,G,]4 | %6
 (G,A,) [B,,B,]2 [A,,C]2 [B,,D]2 | ([C,C]2 [D,A,]2) [G,B,]4 | [CD]2 [B,D]2 [F,D]2 [G,D]2 | %9
 C2 [B,D]2 [F,D]2 [G,D]2 | [E,C]2 [D,D]2 [C,D]2 [B,,D]2 | [A,,E]2 [C,C]2 [D,B,]2 [D,A,]2 | %12
 [E,G,]2 (B,A,) ([C,G,][A,,A,]) [E,B,]2 | [C,C]2 [C,E,]2 [B,,F,]4 | %14
 [E,G,]2 (B,A,) ([C,G,][A,,A,]) [E,B,]2 | [D,D]2 [D,C]2 [G,B,]4 |] %16
V:4
 G,2 x6 | x8 | C,2 x6 | x8 | G,2 x6 | x8 | C,2 x6 | x8 | x8 | C2 x6 | x8 | x8 | x2 B,,2 x4 | x8 | %14
 x2 B,,2 x4 | x8 |] %16

